X:411
T:Snowball
C:Joe Carr
N:Transcribed by Mike Stangeland
R:bluegrass
L:1/8
Q:1/4=235
M:4/4
K:D
z6 [f2c2] | [f2d2] [fd][fd] [f2d2] [fd][fd] | [f2d2] [fd][fd] [f2d2] [f2c2] | 
[f2d2] [fd][fd] [f2d2] [fd][fd] | [f2d2] [fd][fd] [f2d2] Bc | "D"dc de fe d2 | 
"A"cA ce ae cA | "C"=c2 cd ed cA | "Bm"B=c BA GD EF | "G"GF GA BA GB | "D"AB AG FE DC | 
"A"A,B, CD EF GA | BA GB AG FE | "D"D2 d2 f2 d2 | "A"cA ce a4 | "C"=c2 cd ed cA | 
"Bm"B=c BA GD EF | "G"GF GA BA GB | "D"AB AG FE DE | "A"FE DF ED CE | "D"D6 B,A, | 
"G"G,A, B,D EF GA | BA B=c BA G2 | "F"=F=C DE FG A^A | =cd c^A =AG =F2 | "E"E4 B,C EF | 
^GB cB dc B2 | "A"AB ce f^g a2 | a2 a4 EF | "D"dc de fe d2 | "A"cA ce a4 | "C"=c2 cd ed cA | 
"Bm"B=c BA GD EF | "G"GF GA BA GB | "D"AB AG FE DE | "A"FD EF ED CE | "D"D2 =F^F d4 | 
dc dA Bc dB | AG FE D4 | "D"dc de fe d2 | "A"cA ce ae cA | "C"=c2 cd ed cA | "Bm"B=c BA GD EF | 
"G"GF GA BA GB | "D"AB AG FE DE | "A"FE DF ED CE | "D"D2 =F^F d4 | 


